public/images/icons/services/poojas.svg

<svg xmlns="http://www.w3.org/2000/svg" fill="none" stroke="#6f4278" stroke-linecap="round" stroke-linejoin="round" stroke-width="2" viewBox="0 0 64 64"><ellipse cx="32" cy="44" rx="18" ry="6"/><path d="M14 44c0-6 4-10 10-10h16c6 0 10 4 10 10"/><ellipse cx="32" cy="36" rx="10" ry="3"/><path d="M32 33v-9m0-14c-4 6-6 10-4 14 2 2 6 2 8 0 2-4 0-8-4-14"/><path d="M32 16c-2 3-3 5-2 7 1 1 3 1 4 0 1-2 0-4-2-7m-8 34v4m16-4v4m-20 0h24"/></svg>

<svg xmlns="http://www.w3.org/2000/svg" viewBox="0 0 64 64" fill="none" stroke="#6F4278" stroke-width="2" stroke-linecap="round" stroke-linejoin="round">
  <!-- Diya / oil lamp base -->
  <ellipse cx="32" cy="44" rx="18" ry="6"/>
  <!-- Lamp body -->
  <path d="M14,44 C14,38 18,34 24,34 L40,34 C46,34 50,38 50,44"/>
  <!-- Oil surface -->
  <ellipse cx="32" cy="36" rx="10" ry="3"/>
  <!-- Wick -->
  <line x1="32" y1="33" x2="32" y2="24"/>
  <!-- Flame outer -->
  <path d="M32,10 C28,16 26,20 28,24 C30,26 34,26 36,24 C38,20 36,16 32,10Z"/>
  <!-- Flame inner -->
  <path d="M32,16 C30,19 29,21 30,23 C31,24 33,24 34,23 C35,21 34,19 32,16Z"/>
  <!-- Base stand -->
  <line x1="24" y1="50" x2="24" y2="54"/>
  <line x1="40" y1="50" x2="40" y2="54"/>
  <line x1="20" y1="54" x2="44" y2="54"/>
</svg>
